Numix-GalliumOS/32/categories/preferences-mail-accounts.svg

<?xml version="1.0" encoding="UTF-8" standalone="no"?>
<svg
   xmlns:dc="http://purl.org/dc/elements/1.1/"
   xmlns:cc="http://creativecommons.org/ns#"
   xmlns:rdf="http://www.w3.org/1999/02/22-rdf-syntax-ns#"
   xmlns:svg="http://www.w3.org/2000/svg"
   xmlns="http://www.w3.org/2000/svg"
   xmlns:sodipodi="http://sodipodi.sourceforge.net/DTD/sodipodi-0.dtd"
   xmlns:inkscape="http://www.inkscape.org/namespaces/inkscape"
   width="32"
   height="32"
   viewBox="0 0 25.6 25.6"
   id="svg2"
   version="1.1"
   inkscape:version="0.91 r"
   sodipodi:docname="preferences-mail-accounts.svg">
  <metadata
     id="metadata10">
    <rdf:RDF>
      <cc:Work
         rdf:about="">
        <dc:format>image/svg+xml</dc:format>
        <dc:type
           rdf:resource="http://purl.org/dc/dcmitype/StillImage" />
        <dc:title />
      </cc:Work>
    </rdf:RDF>
  </metadata>
  <defs
     id="defs8" />
  <sodipodi:namedview
     pagecolor="#ffffff"
     bordercolor="#666666"
     borderopacity="1"
     objecttolerance="10"
     gridtolerance="10"
     guidetolerance="10"
     inkscape:pageopacity="0"
     inkscape:pageshadow="2"
     inkscape:window-width="1920"
     inkscape:window-height="1056"
     id="namedview6"
     showgrid="true"
     inkscape:zoom="25.343828"
     inkscape:cx="21.040013"
     inkscape:cy="15.342639"
     inkscape:window-x="0"
     inkscape:window-y="24"
     inkscape:window-maximized="1"
     inkscape:current-layer="svg2">
    <inkscape:grid
       type="xygrid"
       id="grid4153" />
  </sodipodi:namedview>
  <path
     style="fill:#555555"
     d="m 15.885635,9.5999996 1.82873,0 c 2.743098,0 2.684233,2.8003704 2.684233,2.8003704 l 0,2.399753 c 0,0.913722 -1.599159,2.80037 -1.599159,2.80037 l 0,1.199877 3.600561,1.999137 0,1.600493 -11.2,0 0,-1.600493 3.60056,-1.999137 0,-1.199877 c 0,0 -1.605045,-1.886648 -1.599158,-2.80037 l 0,-2.399753 c 0,0 -0.05887,-2.8003704 2.684233,-2.8003704 z"
     id="path4"
     inkscape:connector-curvature="0" />
  <path
     style="fill:#555555"
     d="M 9.8574219 4 C 6.4285431 4 6.5019531 7.5 6.5019531 7.5 L 6.5019531 10.5 C 6.4945944 11.642153 8.5 14 8.5 14 L 8.5 15.5 L 4 18 L 4 20 L 15.931641 20 C 15.92633 19.989299 15.919315 19.979468 15.914062 19.96875 C 15.694059 19.519811 15.500156 19.074644 15.503906 18.494141 L 15.503906 16.613281 L 13.5 15.5 L 13.5 14 C 13.5 14 15.498047 11.642152 15.498047 10.5 L 15.498047 7.5 C 15.498047 7.5 15.571451 4 12.142578 4 L 9.8574219 4 z M 17.501953 17.722656 L 17.501953 18.501953 A 1.0001 1.0001 0 0 1 17.501953 18.505859 C 17.502014 18.496431 17.556827 18.77537 17.710938 19.089844 C 17.783477 19.237868 17.901884 19.408464 18 19.572266 L 18 18 L 17.501953 17.722656 z "
     transform="scale(0.8,0.8)"
     id="path4-9" />
</svg>

<svg xmlns="http://www.w3.org/2000/svg" width="32" height="32" viewBox="0 0 25.6 25.6">
 <path d="m 15.886 9.6 1.829 0 c 2.743 0 2.684 2.8 2.684 2.8 l 0 2.4 c 0 0.914 -1.599 2.8 -1.599 2.8 l 0 1.2 3.601 1.999 0 1.6 -11.2 0 0 -1.6 3.601 -1.999 0 -1.2 c 0 0 -1.605 -1.887 -1.599 -2.8 l 0 -2.4 c 0 0 -0.059 -2.8 2.684 -2.8 z" style="fill:#555"/>
 <path d="m 9.857 4 c -3.429 0 -3.355 3.5 -3.355 3.5 l 0 3 c -0.007 1.142 1.998 3.5 1.998 3.5 l 0 1.5 l -4.5 2.5 l 0 2 l 11.932 0 c -0.005 -0.011 -0.012 -0.021 -0.018 -0.031 c -0.22 -0.449 -0.414 -0.894 -0.41 -1.475 l 0 -1.881 l -2 -1.113 l 0 -1.5 c 0 0 1.998 -2.358 1.998 -3.5 l 0 -3 c 0 0 0.073 -3.5 -3.355 -3.5 l -2.285 0 z m 7.645 13.723 l 0 0.779 a 1 1 0 0 1 0 0.004 c 0 -0.009 0.055 0.27 0.209 0.584 c 0.073 0.148 0.191 0.319 0.289 0.482 l 0 -1.572 l -0.498 -0.277 z" transform="scale(0.8,0.8)" style="fill:#555"/>
</svg>
